X:1
T:Title
%%score { ( 1 3 4 ) | 2 }
L:1/8
Q:1/4=92
M:4/4
K:Ab
V:1 treble nm="Grand Piano"
V:3 treble 
V:4 treble 
V:2 bass 
V:1
 [CE]>[CE] (3EFG A>B c>E | [CA]>[CG] [CB]>[CA] [DG]4 | E>E (3EGA [GB]>[Ac] [Bd]>[GB] | %3
w: Wm.~Edie~Marks * * * * * * * *|||
 G>E [EA]>B c4 | [=Ec]>[Ec] (3[Ec][EB][EG] [GB]>[FA] [FA]2 | [=DB]>[DB] (3[DB][DA][DF] [FA]>G G2 | %6
w: |||
 E>F (3GA[GB] [Ac]>[Ad] [_Ge]>[Fd] | c>d c>B [CA]4 | .A4 z4 | .B4 z4 | .c4 z4 | %11
w: |||||
 [Ec]>[Ec] [=DB]>[Dc] B4 | .c4 z4 | .d4 z4 | .e4 z4 | c>d c>B [CA]4 |] %16
w: |||||
V:2
 [A,,A,]>[A,,A,] (3[E,G,D][E,A,D][E,B,D] [F,A,C]>[E,G,E] [A,E]>[A,C] | %1
 [A,,E,]>[A,,E,] [A,,E,]>[A,,E,] [B,,E,]4 | %2
 [E,G,D]>[E,G,D] (3[E,G,D][E,B,D][E,CE] [E,E]>[E,E] [E,E]>[E,E] | %3
 [E,B,E]>[D,G,] [C,A,]>[E,G,E] [A,E]4 | [C,G,]>[C,G,] (3[C,G,][C,G,][C,C] [F,C]>[F,C] [F,C]2 | %5
 [B,,B,]>[B,,B,] (3[B,,F,][B,,F,][B,,B,] [E,B,]>[E,B,E] [E,B,E]2 | %6
 [E,G,]>[E,A,E] (3[E,B,E][E,CE][E,E] [A,E]>[A,B,] [C,A,]>[D,A,] | %7
 [E,A,E]>[E,B,E] [E,A,E]>[E,G,D] [A,,A,]4 | %8
 [A,,A,]>[A,,A,] (3[A,,E,][B,,E,][C,A,] [E,G,E]>[E,B,E] E,2 | %9
 [E,E]>[E,E] (3[E,E][E,E][E,E][K:treble] [A,EA]>[A,CE] [A,C]2 | %10
 [A,_G]>A, (3A,[A,G][A,G][K:bass] [D,A,]>[D,A,] [D,A,]>[D,A,] | %11
 [A,,A,]>[A,,A,] [B,,A,]>[B,,A,] [E,G,E]4 | [A,E]>[A,C] (3[A,E][A,E][A,E] [E,E]>[E,E] [E,E]2 | %13
 [E,E]>[E,E] (3[E,E][E,E][E,E][K:treble] [A,E]>[A,E] [A,E]2 | %14
 [A,C_G]>[A,C] (3[A,C][A,CG][K:bass][C,A,] [D,A,]>[D,A,] [D,A,]>[D,A,] | %15
 [E,A,E]>[E,B,E] [E,A,E]>[E,G,D] [A,,A,]4 |] %16
V:3
 x8 | x8 | x8 | x8 | x8 | x8 | x8 | x8 | z z/ C/ (3C[DG][EA] B>G G,2 | z z/ G/ (3G[FA][GB] c>A E2 | %10
 z z/ _G/ (3GBc [Fe]>[Fd] [FA]>[FB] | x8 | z z/ E/ (3A[Bd][Ac] [GB]>[Ac] [Bd]2 | %13
 z z/ B/ (3B[ce][Bd] [Ac]>[Bd] [ce]2 | z z/ _G/ (3Ge[Ge] [Fe]>[Fd] [FA]>[FB] | x8 |] %16
V:4
 x8 | x8 | x8 | x8 | x8 | x8 | x8 | x8 | C2 z2 z4 | G2 z2 z4 | x8 | x8 | x8 | B2 z2 z4 | x8 | x8 |] %16

